X: 3633
T: Bill McEvoy's
R: reel
M: 4/4
K: Gmajor
DGBd g3 e|=fdcB A=FFF|D=FFF dFcF|BGAF DGGG|
DGBd ggge|=fdcB A=FFF|D=FFF dFcF|1 BGAF DGGG:|2 BGAF DGBd||
|:g2 bg dgbg|fgag fdef|g2 bg dgbg|agfd ggga|
bggg agfd|gbag fdcA|DGBd gbag|1 fdcA BGBd:|2 fdcA BGGG||

